public/images/constellations-home-by-the-numbers.svg

<svg fill="none" height="323" viewBox="0 0 376 323" width="376" xmlns="http://www.w3.org/2000/svg"><g fill="#2b6f9a"><path d="m224.454 94.7714 1.515 5.9936 5.958-1.716-4.414 4.36 4.416 4.309-5.952-1.653-1.542 6.025-1.515-5.994-5.958 1.716 4.413-4.36-4.415-4.3086 5.952 1.6526z"/><path d="m361.055 71.7123 1.515 5.9937 5.982-1.697-4.456 4.3653 4.434 4.2843-5.971-1.6283-1.542 6.0243-1.515-5.9936-5.958 1.716 4.413-4.3603-4.415-4.3083 5.971 1.6283z"/><path d="m259.774 230.919c-.918 1.15-2.59 1.345-3.73.435s-1.321-2.583-.403-3.733 2.59-1.345 3.73-.435 1.321 2.583.403 3.733z"/><path d="m316.686 279.162c-.918 1.15-2.59 1.345-3.73.435-1.14-.909-1.321-2.583-.403-3.733s2.589-1.345 3.73-.435c1.14.91 1.32 2.583.403 3.733z"/><path d="m413.071 321.694c-.917 1.15-2.589 1.345-3.73.435-1.14-.91-1.32-2.583-.403-3.733.918-1.15 2.59-1.345 3.73-.435s1.321 2.583.403 3.733z"/><path d="m249.833 198.554c1.141.911 2.811.716 3.73-.435.918-1.151.738-2.822-.403-3.733-1.142-.911-2.812-.716-3.73.435-.919 1.151-.738 2.822.403 3.733z"/><path d="m388.731 120.78c-.917 1.15-2.589 1.345-3.73.435-1.14-.91-1.32-2.583-.403-3.733.918-1.15 2.59-1.345 3.73-.435s1.321 2.583.403 3.733z"/><path d="m260.613 94.1388c1.141.9108 2.811.716 3.729-.4351.919-1.151.739-2.8225-.403-3.7334-1.141-.9108-2.811-.716-3.729.4351-.919 1.1511-.739 2.8226.403 3.7334z"/><path d="m245.818 111.312c-.917 1.15-2.589 1.345-3.729.435s-1.321-2.583-.403-3.733c.917-1.15 2.589-1.345 3.729-.435 1.141.91 1.321 2.583.403 3.733z"/><path d="m268.862 177.78c-.552-1.891.535-3.886 2.446-4.479 1.893-.568 3.875.504 4.45 2.414.552 1.891-.535 3.887-2.447 4.479-1.892.568-3.874-.504-4.449-2.414z"/><path d="m303.452 147.543c-.552-1.891.535-3.886 2.447-4.478 1.911-.593 3.874.504 4.45 2.414.575 1.91-.536 3.886-2.447 4.478-1.892.569-3.875-.504-4.45-2.414z"/><path d="m386.239 80.0075c-.551-1.8911.536-3.8864 2.447-4.4787 1.892-.5683 3.875.5041 4.45 2.4141.551 1.8911-.536 3.8864-2.447 4.4787-1.892.5683-3.874-.5041-4.45-2.4141z"/><path d="m377.608 300.019c-.551-1.891.536-3.887 2.447-4.479 1.892-.568 3.874.504 4.45 2.414.551 1.891-.536 3.887-2.447 4.479-1.892.568-3.875-.504-4.45-2.414z"/><path d="m314.332 277.873-56.911-48.243s-.148-.157-.138-.267l-6.211-32.8s.011-.305.13-.406l20.792-19.719 34.586-30.28s.1-.077.143-.082l79.49-27.109 2.961-39.5188-25.594 1.3775-101.105 11.6623-18.616 17.967c-.115.143-.31.144-.467.097l-19.28-6.485c-.224-.061-.356-.284-.299-.552l6.9-29.9833s.124-.2535.268-.3354c.124-.0579.276-.054.414.0169l30.978 18.3307 101.148-11.6673 26.133-1.4185s.266.0558.361.1316.133.2235.147.3523l-3.026 40.33s-.135.363-.325.407l-79.7 27.177-34.509 30.184-20.596 19.523 6.145 32.395 56.722 48.092 66.345 21.418s.071.057.095.076l29.95 21.08-.526.756-29.903-21.041-66.368-21.438s-.095-.076-.119-.095zm-82.86-203.5391-6.658 28.9991 18.629 6.279 18.085-17.4482-30.051-17.787z"/><path d="m236.461 67.0595-2.717 5.5965 5.635 2.5365-6.178.4816.582 6.1894-3.461-5.1149-5.035 3.629 2.693-5.6154-5.611-2.5176 6.154-.5005-.577-6.1465 3.48 5.0909z"/><path d="m120.432 54.9213.285 6.1626 6.197-.4187-5.244 3.3196 3.477 5.1102-5.525-2.8129-2.72 5.529-.285-6.1627-6.192.4488 5.239-3.3496-3.477-5.1102 5.529 2.8429z"/><path d="m42.7432 79.2328c.888-1.7583 3.0443-2.4744 4.8453-1.6025 1.7707.8764 2.4873 3.0135 1.6038 4.8019-.888 1.7583-3.0444 2.4743-4.8454 1.6023-1.7706-.8764-2.4873-3.0133-1.6037-4.8017z"/><path d="m106.332 144.531c.888-1.758 3.044-2.474 4.845-1.602 1.771.876 2.487 3.013 1.604 4.802-.888 1.758-3.045 2.474-4.846 1.602-1.77-.876-2.487-3.013-1.603-4.802z"/><path d="m157.499 75.0626c.888-1.7583 3.044-2.4744 4.845-1.6025 1.771.8764 2.487 3.0134 1.604 4.8018-.888 1.7583-3.044 2.4744-4.845 1.6024-1.801-.8719-2.488-3.0133-1.604-4.8017z"/><path d="m3.81616 60.3477c-1.45562.2138-2.81053-.785-3.022507-2.2283-.21198-1.4432.798467-2.7895 2.254077-3.0033 1.45562-.2138 2.81053.7851 3.02251 2.2283s-.79847 2.7895-2.25408 3.0033z"/><path d="m23.6842 48.1834c-1.4556.2138-2.8105-.7851-3.0225-2.2283s.7985-2.7895 2.2541-3.0033 2.8105.785 3.0225 2.2283c.212 1.4432-.7985 2.7895-2.2541 3.0033z"/><path d="m73.5034 94.1882c.2122 1.4447 1.5654 2.4423 3.0225 2.2283s2.4663-1.5587 2.2541-3.0033c-.2122-1.4447-1.5654-2.4423-3.0225-2.2283s-2.4663 1.5586-2.2541 3.0033z"/><path d="m105.253 5.36423c-1.306-.66815-1.848-2.24729-1.202-3.54016.677-1.297324 2.271-1.8384285 3.573-1.200339 1.306.668159 1.848 2.247199 1.201 3.540069-.677 1.29732-2.27 1.83852-3.572 1.20043z"/><path d="m147.079 96.7119c-1.307-.6682-1.849-2.2472-1.202-3.5401.677-1.2973 2.27-1.8385 3.572-1.2004 1.307.6681 1.848 2.2472 1.202 3.54-.677 1.2974-2.271 1.8386-3.572 1.2005z"/><path d="m174.636 76.7845c-1.306-.6682-1.848-2.2473-1.202-3.5402.647-1.2928 2.271-1.8385 3.573-1.2004s1.848 2.2473 1.201 3.5402c-.646 1.2928-2.27 1.8385-3.572 1.2004z"/><path d="m47.7393 17.068c-1.4556.2138-2.8106-.7851-3.0226-2.2283-.2119-1.4432.7986-2.7895 2.2542-3.0033s2.8105.785 3.0225 2.2282c.212 1.4433-.7985 2.7896-2.2541 3.0034z"/><path d="m73.0411 29.8765c-1.4556.2138-2.8105-.7851-3.0225-2.2283-.2119-1.4432.7985-2.7896 2.2541-3.0034s2.8106.7851 3.0226 2.2283c.2119 1.4432-.7986 2.7896-2.2542 3.0034z"/><path d="m46.2862 113.267-2.2467 4.108 4.1837 2.119-4.6933.106.2207 4.667-2.4725-3.968-3.9326 2.544 2.2467-4.108-4.1881-2.15 4.6933-.105-.2207-4.667 2.4421 3.972z"/><path d="m41.3587 118.107s-.0132-.09-.0176-.12l4.167-37.2248s.1162-.2628.2287-.3407c.1125-.078.2685-.0702.3987-.0278l30.1608 12.9855 52.6437 26.8528-.409.798-52.614-26.8579-29.5663-12.7351-4.0568 36.287 67.4301 27.968-.34.849-67.7555-28.074s-.2477-.209-.2698-.36z"/><path d="m118.214 63.448s0-.215.077-.3185c.1-.1682.333-.264.529-.2005l41.941 13.2518 15.011-2.2048.132.902-15.132 2.2226s-.121.0179-.221-.0289l-40.349-12.7484 28.369 29.6815-.684.6226-29.611-30.9734s-.118-.1671-.131-.2573z"/><path d="m3.18802 57.3378 20.14108-12.2036c.2293-.1259.4852-.0713.6418.1514l22.4381 35.2829-.7659.481-22.1986-34.9187-19.74299 11.961-.48754-.7885z"/><path d="m9.49625 32.7904-.00884-.0602c-.01767-.1203.05573-.2539.13787-.3274l24.54762-22.0656s.2901-.1347.4505-.0969l12.8909 3.8197 25.1024 12.715 33.5743-24.0979.543.74951-33.7985 24.25379s-.3248.1091-.4896.0411l-25.2716-12.813-12.5656-3.7138-23.9986 21.5856 13.3699 12.5647-.6438.6782-13.73067-12.911s-.11747-.1671-.13071-.2573z"/><path d="m72.3674 27.6106.5788-.6993 46.0128 36.1204-.579.6993z"/><path d="m17.558 31.5758-5.7709 2.2605 2.3516 5.6748-4.83855-3.8351-3.77452 4.8853.96279-6.1003-6.156389-.7851 5.775379-2.2304-2.35591-5.7049 4.84293 3.8652 3.77007-4.9153-.9628 6.1001z"/><path d="m42.7442 9.84607-5.8013 2.26493 2.3819 5.6704-4.8385-3.8351-3.8049 4.8897.9628-6.1002-6.1563-.7852 5.8056-2.23485-2.3862-5.70045 4.8429 3.86524 3.7701-4.9154-.9324 6.09577z"/><path d="m138.826 120.254-5.775 2.231 2.351 5.675-4.838-3.835-3.775 4.885.963-6.1-6.156-.785 5.775-2.231-2.356-5.705 4.843 3.865 3.774-4.885-.967 6.07z"/></g></svg>

<svg width="376" height="323" viewBox="0 0 376 323" fill="none" xmlns="http://www.w3.org/2000/svg">
<path d="M224.454 94.7714L225.969 100.765L231.927 99.049L227.513 103.409L231.929 107.718L225.977 106.065L224.435 112.09L222.92 106.096L216.962 107.812L221.375 103.452L216.96 99.1434L222.912 100.796L224.454 94.7714Z" fill="#2B6F9A"/>
<path d="M361.055 71.7123L362.57 77.706L368.552 76.009L364.096 80.3743L368.53 84.6586L362.559 83.0303L361.017 89.0546L359.502 83.061L353.544 84.777L357.957 80.4167L353.542 76.1084L359.513 77.7367L361.055 71.7123Z" fill="#2B6F9A"/>
<path d="M259.774 230.919C258.856 232.069 257.184 232.264 256.044 231.354C254.904 230.444 254.723 228.771 255.641 227.621C256.559 226.471 258.231 226.276 259.371 227.186C260.511 228.096 260.692 229.769 259.774 230.919Z" fill="#2B6F9A"/>
<path d="M316.686 279.162C315.768 280.312 314.096 280.507 312.956 279.597C311.816 278.688 311.635 277.014 312.553 275.864C313.471 274.714 315.142 274.519 316.283 275.429C317.423 276.339 317.603 278.012 316.686 279.162Z" fill="#2B6F9A"/>
<path d="M413.071 321.694C412.154 322.844 410.482 323.039 409.341 322.129C408.201 321.219 408.021 319.546 408.938 318.396C409.856 317.246 411.528 317.051 412.668 317.961C413.808 318.871 413.989 320.544 413.071 321.694Z" fill="#2B6F9A"/>
<path d="M249.833 198.554C250.974 199.465 252.644 199.27 253.563 198.119C254.481 196.968 254.301 195.297 253.16 194.386C252.018 193.475 250.348 193.67 249.43 194.821C248.511 195.972 248.692 197.643 249.833 198.554Z" fill="#2B6F9A"/>
<path d="M388.731 120.78C387.814 121.93 386.142 122.125 385.001 121.215C383.861 120.305 383.681 118.632 384.598 117.482C385.516 116.332 387.188 116.137 388.328 117.047C389.468 117.957 389.649 119.63 388.731 120.78Z" fill="#2B6F9A"/>
<path d="M260.613 94.1388C261.754 95.0496 263.424 94.8548 264.342 93.7037C265.261 92.5527 265.081 90.8812 263.939 89.9703C262.798 89.0595 261.128 89.2543 260.21 90.4054C259.291 91.5565 259.471 93.228 260.613 94.1388Z" fill="#2B6F9A"/>
<path d="M245.818 111.312C244.901 112.462 243.229 112.657 242.089 111.747C240.949 110.837 240.768 109.164 241.686 108.014C242.603 106.864 244.275 106.669 245.415 107.579C246.556 108.489 246.736 110.162 245.818 111.312Z" fill="#2B6F9A"/>
<path d="M268.862 177.78C268.31 175.889 269.397 173.894 271.308 173.301C273.201 172.733 275.183 173.805 275.758 175.715C276.31 177.606 275.223 179.602 273.311 180.194C271.419 180.762 269.437 179.69 268.862 177.78Z" fill="#2B6F9A"/>
<path d="M303.452 147.543C302.9 145.652 303.987 143.657 305.899 143.065C307.81 142.472 309.773 143.569 310.349 145.479C310.924 147.389 309.813 149.365 307.902 149.957C306.01 150.526 304.027 149.453 303.452 147.543Z" fill="#2B6F9A"/>
<path d="M386.239 80.0075C385.688 78.1164 386.775 76.1211 388.686 75.5288C390.578 74.9605 392.561 76.0329 393.136 77.9429C393.687 79.834 392.6 81.8293 390.689 82.4216C388.797 82.9899 386.815 81.9175 386.239 80.0075Z" fill="#2B6F9A"/>
<path d="M377.608 300.019C377.057 298.128 378.144 296.132 380.055 295.54C381.947 294.972 383.929 296.044 384.505 297.954C385.056 299.845 383.969 301.841 382.058 302.433C380.166 303.001 378.183 301.929 377.608 300.019Z" fill="#2B6F9A"/>
<path d="M314.332 277.873L257.421 229.63C257.421 229.63 257.273 229.473 257.283 229.363L251.072 196.563C251.072 196.563 251.083 196.258 251.202 196.157L271.994 176.438L306.58 146.158C306.58 146.158 306.68 146.081 306.723 146.076L386.213 118.967L389.174 79.4482L363.58 80.8257L262.475 92.488L243.859 110.455C243.744 110.598 243.549 110.599 243.392 110.552L224.112 104.067C223.888 104.006 223.756 103.783 223.813 103.515L230.713 73.5317C230.713 73.5317 230.837 73.2782 230.981 73.1963C231.105 73.1384 231.257 73.1423 231.395 73.2132L262.373 91.5439L363.521 79.8766L389.654 78.4581C389.654 78.4581 389.92 78.5139 390.015 78.5897C390.11 78.6655 390.148 78.8132 390.162 78.942L387.136 119.272C387.136 119.272 387.001 119.635 386.811 119.679L307.111 146.856L272.602 177.04L252.006 196.563L258.151 228.958L314.873 277.05L381.218 298.468C381.218 298.468 381.289 298.525 381.313 298.544L411.263 319.624L410.737 320.38L380.834 299.339L314.466 277.901C314.466 277.901 314.371 277.825 314.347 277.806L314.332 277.873ZM231.472 74.3339L224.814 103.333L243.443 109.612L261.528 92.1638L231.477 74.3768L231.472 74.3339Z" fill="#2B6F9A"/>
<path d="M236.461 67.0595L233.744 72.656L239.379 75.1925L233.201 75.6741L233.783 81.8635L230.322 76.7486L225.287 80.3776L227.98 74.7622L222.369 72.2446L228.523 71.7441L227.946 65.5976L231.426 70.6885L236.461 67.0595Z" fill="#2B6F9A"/>
<path d="M120.432 54.9213L120.717 61.0839L126.914 60.6652L121.67 63.9848L125.147 69.095L119.622 66.2821L116.902 71.8111L116.617 65.6484L110.425 66.0972L115.664 62.7476L112.187 57.6374L117.716 60.4803L120.432 54.9213Z" fill="#2B6F9A"/>
<path d="M42.7432 79.2328C43.6312 77.4745 45.7875 76.7584 47.5885 77.6303C49.3592 78.5067 50.0758 80.6438 49.1923 82.4322C48.3043 84.1905 46.1479 84.9065 44.3469 84.0345C42.5763 83.1581 41.8596 81.0212 42.7432 79.2328Z" fill="#2B6F9A"/>
<path d="M106.332 144.531C107.22 142.773 109.376 142.057 111.177 142.929C112.948 143.805 113.664 145.942 112.781 147.731C111.893 149.489 109.736 150.205 107.935 149.333C106.165 148.457 105.448 146.32 106.332 144.531Z" fill="#2B6F9A"/>
<path d="M157.499 75.0626C158.387 73.3043 160.543 72.5882 162.344 73.4601C164.115 74.3365 164.831 76.4735 163.948 78.2619C163.06 80.0202 160.904 80.7363 159.103 79.8643C157.302 78.9924 156.615 76.851 157.499 75.0626Z" fill="#2B6F9A"/>
<path d="M3.81616 60.3477C2.36054 60.5615 1.00563 59.5627 0.793653 58.1194C0.581673 56.6762 1.59212 55.3299 3.04773 55.1161C4.50335 54.9023 5.85826 55.9012 6.07024 57.3444C6.28222 58.7876 5.27177 60.1339 3.81616 60.3477Z" fill="#2B6F9A"/>
<path d="M23.6842 48.1834C22.2286 48.3972 20.8737 47.3983 20.6617 45.9551C20.4497 44.5119 21.4602 43.1656 22.9158 42.9518C24.3714 42.738 25.7263 43.7368 25.9383 45.1801C26.1503 46.6233 25.1398 47.9696 23.6842 48.1834Z" fill="#2B6F9A"/>
<path d="M73.5034 94.1882C73.7156 95.6329 75.0688 96.6305 76.5259 96.4165C77.983 96.2025 78.9922 94.8578 78.78 93.4132C78.5678 91.9685 77.2146 90.9709 75.7575 91.1849C74.3004 91.3989 73.2912 92.7435 73.5034 94.1882Z" fill="#2B6F9A"/>
<path d="M105.253 5.36423C103.947 4.69608 103.405 3.11694 104.051 1.82407C104.728 0.526746 106.322 -0.0143585 107.624 0.623731C108.93 1.29189 109.472 2.87093 108.825 4.1638C108.148 5.46112 106.555 6.00232 105.253 5.36423Z" fill="#2B6F9A"/>
<path d="M147.079 96.7119C145.772 96.0437 145.23 94.4647 145.877 93.1718C146.554 91.8745 148.147 91.3333 149.449 91.9714C150.756 92.6395 151.297 94.2186 150.651 95.5114C149.974 96.8088 148.38 97.35 147.079 96.7119Z" fill="#2B6F9A"/>
<path d="M174.636 76.7845C173.33 76.1163 172.788 74.5372 173.434 73.2443C174.081 71.9515 175.705 71.4058 177.007 72.0439C178.309 72.682 178.855 74.2912 178.208 75.5841C177.562 76.8769 175.938 77.4226 174.636 76.7845Z" fill="#2B6F9A"/>
<path d="M47.7393 17.068C46.2837 17.2818 44.9287 16.2829 44.7167 14.8397C44.5048 13.3965 45.5153 12.0502 46.9709 11.8364C48.4265 11.6226 49.7814 12.6214 49.9934 14.0646C50.2054 15.5079 49.1949 16.8542 47.7393 17.068Z" fill="#2B6F9A"/>
<path d="M73.0411 29.8765C71.5855 30.0903 70.2306 29.0914 70.0186 27.6482C69.8067 26.205 70.8171 24.8586 72.2727 24.6448C73.7283 24.431 75.0833 25.4299 75.2953 26.8731C75.5072 28.3163 74.4967 29.6627 73.0411 29.8765Z" fill="#2B6F9A"/>
<path d="M46.2862 113.267L44.0395 117.375L48.2232 119.494L43.5299 119.6L43.7506 124.267L41.2781 120.299L37.3455 122.843L39.5922 118.735L35.4041 116.585L40.0974 116.48L39.8767 111.813L42.3188 115.785L46.2862 113.267Z" fill="#2B6F9A"/>
<path d="M41.3587 118.107C41.3587 118.107 41.3455 118.017 41.3411 117.987L45.5081 80.7622C45.5081 80.7622 45.6243 80.4994 45.7368 80.4215C45.8493 80.3435 46.0053 80.3513 46.1355 80.3937L76.2963 93.3792L128.94 120.232L128.531 121.03L75.917 94.1721L46.3507 81.437L42.2939 117.724L109.724 145.692L109.384 146.541L41.6285 118.467C41.6285 118.467 41.3808 118.258 41.3587 118.107Z" fill="#2B6F9A"/>
<path d="M118.214 63.448C118.214 63.448 118.214 63.233 118.291 63.1295C118.391 62.9613 118.624 62.8655 118.82 62.929L160.761 76.1808L175.772 73.976L175.904 74.878L160.772 77.1006C160.772 77.1006 160.651 77.1185 160.551 77.0717L120.202 64.3233L148.571 94.0048L147.887 94.6274L118.276 63.654C118.276 63.654 118.158 63.4869 118.145 63.3967L118.214 63.448Z" fill="#2B6F9A"/>
<path d="M3.18802 57.3378L23.3291 45.1342C23.5584 45.0083 23.8143 45.0629 23.9709 45.2856L46.409 80.5685L45.6431 81.0495L23.4445 46.1308L3.70151 58.0918L3.21397 57.3033L3.18802 57.3378Z" fill="#2B6F9A"/>
<path d="M9.49625 32.7904L9.48741 32.7302C9.46974 32.6099 9.54314 32.4763 9.62528 32.4028L34.1729 10.3372C34.1729 10.3372 34.463 10.2025 34.6234 10.2403L47.5143 14.06L72.6167 26.775L106.191 2.6771L106.734 3.42661L72.9355 27.6804C72.9355 27.6804 72.6107 27.7895 72.4459 27.7215L47.1743 14.9085L34.6087 11.1947L10.6101 32.7803L23.98 45.345L23.3362 46.0232L9.60553 33.1122C9.60553 33.1122 9.48806 32.9451 9.47482 32.8549L9.49625 32.7904Z" fill="#2B6F9A"/>
<path d="M72.3674 27.6106L72.9462 26.9113L118.959 63.0317L118.38 63.731L72.3674 27.6106Z" fill="#2B6F9A"/>
<path d="M17.558 31.5758L11.7871 33.8363L14.1387 39.5111L9.30015 35.676L5.52563 40.5613L6.48842 34.461L0.332031 33.6759L6.10741 31.4455L3.7515 25.7406L8.59443 29.6058L12.3645 24.6905L11.4017 30.7906L17.558 31.5758Z" fill="#2B6F9A"/>
<path d="M42.7442 9.84607L36.9429 12.111L39.3248 17.7814L34.4863 13.9463L30.6814 18.836L31.6442 12.7358L25.4879 11.9506L31.2935 9.71575L28.9073 4.0153L33.7502 7.88054L37.5203 2.96514L36.5879 9.06091L42.7442 9.84607Z" fill="#2B6F9A"/>
<path d="M138.826 120.254L133.051 122.485L135.402 128.16L130.564 124.325L126.789 129.21L127.752 123.11L121.596 122.325L127.371 120.094L125.015 114.389L129.858 118.254L133.632 113.369L132.665 119.439L138.826 120.254Z" fill="#2B6F9A"/>
</svg>
